public/images/logos/leo-et-violette.svg

<svg width="1711" height="217" viewBox="0 0 1711 217" fill="none" xmlns="http://www.w3.org/2000/svg">
<path d="M1005.46 59.9904C1006.49 60.8803 1007.52 61.7789 1008.53 62.6866C1009.35 63.3566 1009.35 63.3566 1010.18 64.04C1026.84 78.1486 1035.12 99.6922 1037.1 120.992C1039.07 146.052 1033.23 171.496 1016.77 190.988C1004.51 205.035 987.386 214.317 968.758 216.37C965.328 216.562 961.911 216.595 958.477 216.581C958.016 216.579 957.555 216.578 957.08 216.576C936.031 216.47 918.156 209.017 902.901 194.632C896.137 187.555 891.089 179.475 887.185 170.535C886.995 170.1 886.805 169.664 886.609 169.216C881.421 157.058 879.612 144.369 879.601 131.229C879.6 130.749 879.6 130.269 879.6 129.774C879.632 108.189 885.77 86.3125 900.668 70.1012C900.97 69.7712 901.271 69.4413 901.582 69.1013C927.464 41.0818 974.978 36.1248 1005.46 59.9904ZM922.915 84.2562C909.604 99.2105 905.953 117.723 906.604 137.278C907.542 153.301 914.267 168.593 925.612 179.971C936.626 189.706 949.321 192.976 963.672 192.241C977.541 191.136 988.34 183.724 997.241 173.441C1008.79 158.246 1012.23 137.699 1009.73 119.125C1007.82 106.774 1003.35 95.7093 995.05 86.2784C994.393 85.4338 994.393 85.4338 993.722 84.5722C986.55 75.8569 974.343 70.773 963.364 69.4271C948.332 68.548 933.523 73.2209 922.915 84.2562Z" fill="black"/>
<path d="M374.632 63.6902C390.995 78.5494 400.077 99.4032 401.795 121.329C402.894 146.74 398.225 172.285 380.601 191.641C367.74 205.265 350.614 215.468 331.469 216.489C309.539 216.863 309.539 216.863 299.324 213.674C298.859 213.533 298.395 213.392 297.916 213.247C278.541 207.187 263.362 192.967 253.965 175.263C242.266 152.379 240.926 124.123 248.52 99.7196C255.195 79.4691 268.554 62.7975 287.516 52.9034C293.46 49.9609 299.632 48.0602 306.065 46.5094C306.801 46.3305 307.536 46.1515 308.293 45.967C331.531 41.4681 356.836 48.1766 374.632 63.6902ZM290.56 81.56C290.069 81.9745 289.578 82.389 289.072 82.816C278.234 92.7972 272.072 109.181 271.07 123.646C271.05 124.216 271.03 124.786 271.009 125.373C270.983 126.124 270.956 126.875 270.928 127.648C270.612 145.49 275.014 163.113 287.189 176.601C287.611 177.077 288.032 177.553 288.466 178.044C296.234 186.333 307.625 191.748 318.959 192.32C333.124 192.747 345.364 189.223 356.169 179.695C368.942 167.352 374.625 150.094 375.066 132.664C375.217 114.349 370.327 97.2522 357.501 83.7428C350.382 76.8059 342.145 72.1197 332.357 70.1012C331.62 69.9483 330.883 69.7953 330.124 69.6378C315.155 68.3694 302.107 71.7673 290.56 81.56Z" fill="black"/>
<path d="M1599.76 47.8575C1636.47 47.8575 1673.18 47.8575 1711 47.8575C1711 55.6428 1711 63.4281 1711 71.4493C1682.97 71.4493 1654.94 71.4493 1626.06 71.4493C1626.06 83.9057 1626.06 96.3622 1626.06 109.196C1646.08 109.196 1666.1 109.196 1686.73 109.196C1686.73 116.759 1686.73 124.322 1686.73 132.114C1666.71 132.114 1646.69 132.114 1626.06 132.114C1626.06 151.688 1626.06 171.263 1626.06 191.43C1654.09 191.43 1682.12 191.43 1711 191.43C1711 198.993 1711 206.556 1711 214.348C1674.29 214.348 1637.58 214.348 1599.76 214.348C1599.76 159.406 1599.76 104.464 1599.76 47.8575Z" fill="black"/>
<path d="M1183.81 47.8575C1220.3 47.8575 1256.78 47.8575 1294.37 47.8575C1294.37 55.6428 1294.37 63.4281 1294.37 71.4493C1266.56 71.4493 1238.76 71.4493 1210.1 71.4493C1210.1 83.9057 1210.1 96.3622 1210.1 109.196C1230.13 109.196 1250.15 109.196 1270.78 109.196C1270.78 116.759 1270.78 124.322 1270.78 132.114C1250.76 132.114 1230.73 132.114 1210.1 132.114C1210.1 151.688 1210.1 171.263 1210.1 191.43C1238.14 191.43 1266.17 191.43 1295.05 191.43C1295.05 198.993 1295.05 206.556 1295.05 214.348C1258.34 214.348 1221.63 214.348 1183.81 214.348C1183.81 159.406 1183.81 104.464 1183.81 47.8575Z" fill="black"/>
<path d="M122.022 47.8575C158.507 47.8575 194.992 47.8575 232.583 47.8575C232.583 55.6428 232.583 63.4281 232.583 71.4493C204.551 71.4493 176.52 71.4493 147.639 71.4493C147.639 83.9057 147.639 96.3622 147.639 109.196C167.662 109.196 187.684 109.196 208.313 109.196C208.313 116.759 208.313 124.322 208.313 132.114C188.291 132.114 168.269 132.114 147.639 132.114C147.639 151.688 147.639 171.263 147.639 191.43C175.893 191.43 204.147 191.43 233.257 191.43C233.257 198.993 233.257 206.556 233.257 214.348C196.549 214.348 159.842 214.348 122.022 214.348C122.022 159.406 122.022 104.464 122.022 47.8575Z" fill="black"/>
<path d="M665.389 47.8575C674.288 47.8575 683.186 47.8575 692.355 47.8575C698.827 66.6773 705.124 85.5373 711.231 104.478C711.48 105.25 711.729 106.022 711.986 106.817C713.221 110.646 714.455 114.475 715.69 118.304C716.408 120.534 717.127 122.764 717.846 124.994C717.988 125.435 718.131 125.876 718.277 126.33C722.33 138.901 726.39 151.471 730.484 164.029C730.989 165.579 731.494 167.129 731.997 168.679C732.688 170.805 733.382 172.931 734.076 175.056C734.28 175.686 734.485 176.316 734.695 176.966C734.882 177.534 735.068 178.103 735.26 178.689C735.422 179.184 735.583 179.679 735.749 180.189C736.088 181.326 736.089 181.326 736.849 181.993C742.853 164.053 748.845 146.11 754.683 128.114C757.065 120.772 759.461 113.434 761.869 106.1C762.096 105.409 762.096 105.409 762.327 104.705C763.721 100.46 765.116 96.2161 766.51 91.9718C770.909 78.589 770.909 78.589 775.26 65.1906C775.552 64.2851 775.552 64.2851 775.851 63.3614C776.721 60.6634 777.589 57.9647 778.453 55.2645C778.746 54.3551 779.039 53.4458 779.331 52.5364C779.699 51.3863 779.699 51.3863 780.075 50.2129C780.669 48.5316 780.669 48.5316 781.343 47.8575C783.288 47.7978 785.216 47.7799 787.16 47.7917C788.034 47.7932 788.034 47.7932 788.926 47.7946C790.794 47.7984 792.663 47.8069 794.531 47.8154C795.795 47.8188 797.058 47.8219 798.322 47.8246C801.426 47.8321 804.531 47.8437 807.635 47.8575C806.14 53.8488 804.175 59.6508 802.16 65.4813C801.106 68.5301 800.061 71.5816 799.013 74.6326C798.788 75.2898 798.562 75.9469 798.329 76.624C795.756 84.1156 793.214 91.6174 790.671 99.1193C789.3 103.163 787.929 107.206 786.557 111.25C786.152 112.444 786.152 112.444 785.739 113.662C782.691 122.647 779.632 131.629 776.572 140.611C776.133 141.9 775.694 143.189 775.255 144.478C775.037 145.117 774.82 145.755 774.596 146.412C772.47 152.653 770.348 158.896 768.226 165.139C766.556 170.052 764.885 174.965 763.213 179.879C761.81 184.003 760.409 188.129 759.01 192.255C758.125 194.862 757.239 197.469 756.352 200.075C755.937 201.297 755.522 202.52 755.109 203.742C754.544 205.411 753.976 207.079 753.408 208.747C753.241 209.241 753.075 209.735 752.903 210.244C751.757 213.597 751.757 213.597 751.006 214.348C750.075 214.41 749.14 214.427 748.207 214.424C747.613 214.424 747.019 214.424 746.407 214.424C745.762 214.421 745.117 214.417 744.452 214.414C743.794 214.413 743.137 214.412 742.459 214.411C740.351 214.407 738.242 214.399 736.133 214.39C734.707 214.387 733.281 214.384 731.855 214.381C728.351 214.373 724.847 214.362 721.344 214.348C714.846 195.345 708.373 176.334 701.91 157.32C699.75 150.966 697.589 144.612 695.429 138.258C694.236 134.75 693.042 131.241 691.849 127.732C691.372 126.328 690.894 124.924 690.417 123.52C687.552 115.094 687.552 115.094 686.836 112.988C686.357 111.582 685.879 110.177 685.401 108.771C684.215 105.283 683.03 101.796 681.845 98.308C679.604 91.7108 677.358 85.1152 675.098 78.5244C674.028 75.4023 672.96 72.2793 671.892 69.1563C671.381 67.6641 670.869 66.1722 670.356 64.6808C669.645 62.6163 668.939 60.5505 668.233 58.4844C667.917 57.5705 667.917 57.5705 667.594 56.6382C667.305 55.7876 667.305 55.7876 667.01 54.9199C666.842 54.4318 666.675 53.9438 666.502 53.4409C665.981 51.6159 665.701 49.7295 665.389 47.8575Z" fill="black"/>
<path d="M1452.13 47.8575C1494.17 47.8575 1536.22 47.8575 1579.54 47.8575C1579.54 55.6428 1579.54 63.4281 1579.54 71.4493C1562.85 71.4493 1546.17 71.4493 1528.98 71.4493C1528.98 118.606 1528.98 165.762 1528.98 214.348C1520.3 214.348 1511.63 214.348 1502.69 214.348C1502.69 167.191 1502.69 120.035 1502.69 71.4493C1486 71.4493 1469.32 71.4493 1452.13 71.4493C1452.13 63.664 1452.13 55.8787 1452.13 47.8575Z" fill="black"/>
<path d="M1310.55 47.8575C1352.6 47.8575 1394.65 47.8575 1437.97 47.8575C1437.97 55.6428 1437.97 63.4281 1437.97 71.4493C1421.28 71.4493 1404.6 71.4493 1387.41 71.4493C1387.41 118.606 1387.41 165.762 1387.41 214.348C1378.73 214.348 1370.05 214.348 1361.11 214.348C1361.11 167.191 1361.11 120.035 1361.11 71.4493C1344.43 71.4493 1327.74 71.4493 1310.55 71.4493C1310.55 63.664 1310.55 55.8787 1310.55 47.8575Z" fill="black"/>
<path d="M1061.79 47.8575C1070.47 47.8575 1079.14 47.8575 1088.08 47.8575C1088.08 95.2365 1088.08 142.615 1088.08 191.43C1113 191.43 1137.92 191.43 1163.59 191.43C1163.59 198.993 1163.59 206.556 1163.59 214.348C1129.99 214.348 1096.4 214.348 1061.79 214.348C1061.79 159.406 1061.79 104.464 1061.79 47.8575Z" fill="black"/>
<path d="M0 47.8575C8.45388 47.8575 16.9078 47.8575 25.6178 47.8575C25.6178 95.2365 25.6178 142.615 25.6178 191.43C50.5345 191.43 75.4512 191.43 101.123 191.43C101.123 198.993 101.123 206.556 101.123 214.348C67.7524 214.348 34.3818 214.348 0 214.348C0 159.406 0 104.464 0 47.8575Z" fill="black"/>
<path d="M537.819 140.911C546.155 147.877 549.498 155.991 551.457 166.49C551.68 170.939 551.902 175.388 552.131 179.971C532.331 179.971 512.531 179.971 492.132 179.971C494.884 188.227 496.612 192.882 504.229 196.828C510.94 199.626 518.19 199.271 524.965 196.844C529.207 194.918 532.202 192.195 535.277 188.734C538.023 189.711 540.247 191.054 542.651 192.694C543.324 193.151 543.998 193.608 544.692 194.079C545.367 194.54 546.042 195 546.738 195.474C548.084 196.376 549.433 197.274 550.783 198.171C548.842 204.086 543.169 208.483 537.874 211.441C525.254 217.249 509.564 218.891 496.232 214.519C486.192 210.435 477.746 203.507 473.382 193.41C472.873 192.083 472.379 190.749 471.907 189.408C471.748 188.96 471.589 188.511 471.425 188.049C468.157 177.077 469.78 163.893 474.604 153.683C480.398 143.774 488.916 137.557 499.926 134.557C512.602 131.477 527.169 133.026 537.819 140.911ZM496.176 156.38C493.936 159.69 492.806 161.731 492.806 165.816C504.819 165.816 516.833 165.816 529.21 165.816C528.475 160.673 527.538 158.04 523.943 154.526C515.934 148.874 503.213 148.942 496.176 156.38Z" fill="black"/>
<path d="M827.186 47.8575C835.639 47.8575 844.093 47.8575 852.803 47.8575C852.803 102.799 852.803 157.741 852.803 214.348C844.349 214.348 835.896 214.348 827.186 214.348C827.186 159.406 827.186 104.464 827.186 47.8575Z" fill="black"/>
<path d="M573.03 113.24C579.927 113.24 586.823 113.24 593.929 113.24C593.929 120.581 593.929 127.921 593.929 135.484C601.493 135.484 609.057 135.484 616.85 135.484C616.85 141.49 616.85 147.496 616.85 153.683C609.286 153.683 601.722 153.683 593.929 153.683C593.974 158.718 594.022 163.752 594.087 168.787C594.118 171.132 594.144 173.476 594.162 175.821C594.183 178.513 594.22 181.205 594.258 183.897C594.262 184.735 594.266 185.573 594.271 186.436C594.284 187.218 594.298 188.001 594.311 188.807C594.323 189.837 594.323 189.837 594.334 190.889C594.646 193.081 595.338 194.361 596.625 196.149C599.335 197.969 602.234 197.966 605.389 197.497C606.744 196.873 606.744 196.873 607.959 196.064C608.669 195.647 609.378 195.23 610.108 194.8C613.517 195.891 614.896 198.933 616.723 201.794C617.244 202.571 617.244 202.571 617.776 203.363C618.1 203.865 618.425 204.367 618.759 204.885C619.056 205.342 619.353 205.8 619.659 206.271C620.356 207.929 620.219 208.657 619.546 210.304C611.416 217.145 600.625 217.232 590.558 216.37C584.651 215.231 579.333 212.162 575.853 207.186C572.244 200.567 572.072 193.439 572.158 186.069C572.162 185.129 572.165 184.188 572.167 183.248C572.175 180.801 572.194 178.355 572.217 175.908C572.238 173.4 572.247 170.892 572.257 168.383C572.279 163.483 572.314 158.583 572.356 153.683C568.351 153.683 564.347 153.683 560.221 153.683C560.221 147.678 560.221 141.672 560.221 135.484C564.448 135.484 568.675 135.484 573.03 135.484C573.03 128.144 573.03 120.803 573.03 113.24Z" fill="black"/>
<path d="M180.673 0C191.796 0 202.92 0 214.381 0C211.82 2.98663 209.353 5.78744 206.591 8.55201C206.08 9.06381 206.08 9.06381 205.559 9.58596C204.845 10.3004 204.13 11.014 203.414 11.7268C202.335 12.8023 201.259 13.8813 200.184 14.9607C197.291 17.8543 194.409 20.7326 191.288 23.3837C189.39 24.9997 187.733 26.7112 186.085 28.5813C178.389 37.2076 178.389 37.2076 174.311 37.8153C171.879 37.9057 169.566 37.6019 167.19 37.0727C168.55 32.3036 170.147 27.6702 171.917 23.0388C172.252 22.1546 172.252 22.1546 172.593 21.2525C173.416 19.0823 174.243 16.9137 175.069 14.7448C176.918 9.87904 178.768 5.01325 180.673 0Z" fill="black"/>
</svg>

<svg xmlns="http://www.w3.org/2000/svg" width="1711" height="217" fill="none"><path fill="#000" d="M1005.46 59.99c1.03.89 2.06 1.789 3.07 2.697.82.67.82.67 1.65 1.353 16.66 14.109 24.94 35.652 26.92 56.952 1.97 25.06-3.87 50.504-20.33 69.996-12.26 14.047-29.384 23.329-48.012 25.382-3.43.192-6.847.225-10.281.211l-1.397-.005c-21.049-.106-38.924-7.559-54.179-21.944-6.764-7.077-11.812-15.157-15.716-24.097l-.576-1.319c-5.188-12.158-6.997-24.847-7.008-37.987l-.001-1.455c.032-21.585 6.17-43.462 21.068-59.673l.914-1c25.882-28.02 73.396-32.976 103.878-9.11Zm-82.545 24.266c-13.311 14.954-16.962 33.467-16.311 53.022.938 16.023 7.663 31.315 19.008 42.693 11.014 9.735 23.709 13.005 38.06 12.27 13.869-1.105 24.668-8.517 33.569-18.8 11.549-15.195 14.989-35.742 12.489-54.316-1.91-12.351-6.38-23.416-14.68-32.847l-1.328-1.706c-7.172-8.715-19.379-13.799-30.358-15.145-15.032-.879-29.841 3.794-40.449 14.83ZM374.632 63.69c16.363 14.86 25.445 35.713 27.163 57.639 1.099 25.411-3.57 50.956-21.194 70.312-12.861 13.624-29.987 23.827-49.132 24.848-21.93.374-21.93.374-32.145-2.815l-1.408-.427c-19.375-6.06-34.554-20.28-43.951-37.984-11.699-22.884-13.039-51.14-5.445-75.543 6.675-20.25 20.034-36.922 38.996-46.817 5.944-2.942 12.116-4.843 18.549-6.394.736-.178 1.471-.358 2.228-.542 23.238-4.499 48.543 2.21 66.339 17.723ZM290.56 81.56l-1.488 1.256c-10.838 9.981-17 26.365-18.002 40.83a2492.845 2492.845 0 0 1-.142 4.002c-.316 17.842 4.086 35.465 16.261 48.953l1.277 1.443c7.768 8.289 19.159 13.704 30.493 14.276 14.165.427 26.405-3.097 37.21-12.625 12.773-12.343 18.456-29.601 18.897-47.031.151-18.315-4.739-35.412-17.565-48.921-7.119-6.937-15.356-11.623-25.144-13.642l-2.233-.463c-14.969-1.269-28.017 2.13-39.564 11.922ZM1599.76 47.858H1711v23.591h-84.94v37.747h60.67v22.918h-60.67v59.316H1711v22.918h-111.24V47.858ZM1183.81 47.858h110.56v23.591h-84.27v37.747h60.68v22.918h-60.68v59.316h84.95v22.918h-111.24V47.858ZM122.022 47.858h110.561v23.591h-84.944v37.747h60.674v22.918h-60.674v59.316h85.618v22.918H122.022V47.858ZM665.389 47.858h26.966a3088.214 3088.214 0 0 1 19.631 58.959l3.704 11.487 2.156 6.69.431 1.336c4.053 12.571 8.113 25.141 12.207 37.699.505 1.55 1.01 3.1 1.513 4.65.691 2.126 1.385 4.252 2.079 6.377l.619 1.91.565 1.723.489 1.5c.339 1.137.34 1.137 1.1 1.804 6.004-17.94 11.996-35.883 17.834-53.879 2.382-7.342 4.778-14.68 7.186-22.014l.458-1.395 4.183-12.733c4.399-13.383 4.399-13.383 8.75-26.781l.591-1.83c.87-2.698 1.738-5.396 2.602-8.096l.878-2.729.744-2.323c.594-1.681.594-1.681 1.268-2.355a157.82 157.82 0 0 1 5.817-.066l1.766.003c1.868.003 3.737.012 5.605.02l3.791.01c3.104.007 6.209.019 9.313.032-1.495 5.992-3.46 11.794-5.475 17.624-1.054 3.05-2.099 6.1-3.147 9.152l-.684 1.991c-2.573 7.492-5.115 14.993-7.658 22.495l-4.114 12.131-.818 2.412c-3.048 8.985-6.107 17.967-9.167 26.949l-1.317 3.867-.659 1.934c-2.126 6.241-4.248 12.484-6.37 18.727l-5.013 14.74c-1.403 4.124-2.804 8.25-4.203 12.376-.885 2.607-1.771 5.214-2.658 7.82-.415 1.222-.83 2.445-1.243 3.667-.565 1.669-1.133 3.337-1.701 5.005l-.505 1.497c-1.146 3.353-1.146 3.353-1.897 4.104a40.2 40.2 0 0 1-2.799.076h-1.8l-1.955-.01-1.993-.003c-2.108-.004-4.217-.012-6.326-.021l-4.278-.009c-3.504-.008-7.008-.019-10.511-.033a32989.222 32989.222 0 0 1-19.434-57.028l-6.481-19.062-3.58-10.526-1.432-4.212-3.581-10.532-1.435-4.217a42993.23 42993.23 0 0 1-3.556-10.463 7264.16 7264.16 0 0 0-6.747-19.784 14965.6 14965.6 0 0 1-3.206-9.368 3468.99 3468.99 0 0 0-1.536-4.475c-.711-2.065-1.417-4.13-2.123-6.197l-.639-1.846-.584-1.718-.508-1.48c-.521-1.824-.801-3.71-1.113-5.582ZM1452.13 47.858h127.41v23.591h-50.56v142.899h-26.29V71.449h-50.56V47.858ZM1310.55 47.858h127.42v23.591h-50.56v142.899h-26.3V71.449h-50.56V47.858ZM1061.79 47.858h26.29V191.43h75.51v22.918h-101.8V47.858ZM0 47.858h25.618V191.43h75.505v22.918H0V47.858ZM537.819 140.911c8.336 6.966 11.679 15.08 13.638 25.579l.674 13.481h-59.999c2.752 8.256 4.48 12.911 12.097 16.857 6.711 2.798 13.961 2.443 20.736.016 4.242-1.926 7.237-4.649 10.312-8.11 2.746.977 4.97 2.32 7.374 3.96l2.041 1.385 2.046 1.395c1.346.902 2.695 1.8 4.045 2.697-1.941 5.915-7.614 10.312-12.909 13.27-12.62 5.808-28.31 7.45-41.642 3.078-10.04-4.084-18.486-11.012-22.85-21.109a153.296 153.296 0 0 1-1.475-4.002l-.482-1.359c-3.268-10.972-1.645-24.156 3.179-34.366 5.794-9.909 14.312-16.126 25.322-19.126 12.676-3.08 27.243-1.531 37.893 6.354Zm-41.643 15.469c-2.24 3.31-3.37 5.351-3.37 9.436h36.404c-.735-5.143-1.672-7.776-5.267-11.29-8.009-5.652-20.73-5.584-27.767 1.854ZM827.186 47.858h25.617v166.49h-25.617V47.858ZM573.03 113.24h20.899v22.244h22.921v18.199h-22.921c.045 5.035.093 10.069.158 15.104.031 2.345.057 4.689.075 7.034.021 2.692.058 5.384.096 8.076l.013 2.539.04 2.371.023 2.082c.312 2.192 1.004 3.472 2.291 5.26 2.71 1.82 5.609 1.817 8.764 1.348 1.355-.624 1.355-.624 2.57-1.433l2.149-1.264c3.409 1.091 4.788 4.133 6.615 6.994l1.053 1.569.983 1.522.9 1.386c.697 1.658.56 2.386-.113 4.033-8.13 6.841-18.921 6.928-28.988 6.066-5.907-1.139-11.225-4.208-14.705-9.184-3.609-6.619-3.781-13.747-3.695-21.117a1197.322 1197.322 0 0 1 .059-10.161c.021-2.508.03-5.016.04-7.525.022-4.9.057-9.8.099-14.7h-12.135v-18.199h12.809V113.24ZM180.673 0h33.708c-2.561 2.987-5.028 5.787-7.79 8.552l-1.032 1.034c-.714.714-1.429 1.428-2.145 2.14a1246.589 1246.589 0 0 0-3.23 3.235c-2.893 2.893-5.775 5.772-8.896 8.423-1.898 1.616-3.555 3.327-5.203 5.197-7.696 8.627-7.696 8.627-11.774 9.234-2.432.09-4.745-.213-7.121-.742 1.36-4.77 2.957-9.403 4.727-14.034l.676-1.787c.823-2.17 1.65-4.338 2.476-6.507L180.673 0Z"/></svg>
